svgs/head/edited svgs/443 copy.svg

<svg xmlns="http://www.w3.org/2000/svg" xmlns:ffdec="https://www.free-decompiler.com/flash" ffdec:objectType="shape" viewBox="0 0 114.55 53.2">
  <defs>
    <clipPath id="a" clipPathUnits="userSpaceOnUse">
      <path fill="none" fill-rule="evenodd" stroke-width="1.063" d="M-62.3-31.6H62.25v63.2H-62.3Zm-1.856 32.723v28.319H64.322V1.122Z" class="powerclip"/>
    </clipPath>
  </defs>
  <path fill="#fc6" fill-rule="evenodd" d="M26.55-26.6q12.7 0 21.7 7.8t9 18.8q0 11-9 18.8-9 7.8-21.7 7.8t-21.7-7.8q-9-7.8-9-18.8t9-18.8q9-7.8 21.7-7.8M-24.7-12.75q5.6 6.4 5.6 15.45 0 9.05-5.6 15.45-5.6 6.4-13.5 6.4t-13.5-6.4q-5.6-6.4-5.6-15.45 0-9.05 5.6-15.45 5.6-6.4 13.5-6.4t13.5 6.4" clip-path="url(#a)" transform="translate(57.3 26.6)"/>
</svg>

<?xml version="1.0" encoding="UTF-8" standalone="no"?>
<svg xmlns:ffdec="https://www.free-decompiler.com/flash" xmlns:xlink="http://www.w3.org/1999/xlink" ffdec:objectType="shape" height="53.2px" width="114.55px" xmlns="http://www.w3.org/2000/svg">
  <g transform="matrix(1.0, 0.0, 0.0, 1.0, 57.3, 26.6)">
    <path d="M26.55 -26.6 Q39.25 -26.6 48.25 -18.8 57.25 -11.0 57.25 0.0 57.25 11.0 48.25 18.8 39.25 26.6 26.55 26.6 13.85 26.6 4.85 18.8 -4.15 11.0 -4.15 0.0 -4.15 -11.0 4.85 -18.8 13.85 -26.6 26.55 -26.6 M-24.7 -12.75 Q-19.1 -6.35 -19.1 2.7 -19.1 11.75 -24.7 18.15 -30.3 24.55 -38.2 24.55 -46.1 24.55 -51.7 18.15 -57.3 11.75 -57.3 2.7 -57.3 -6.35 -51.7 -12.75 -46.1 -19.15 -38.2 -19.15 -30.3 -19.15 -24.7 -12.75" fill="#ffffff" fill-rule="evenodd" stroke="none"/>
  </g>
</svg>
